components/Common/Svg/svgs/desktopCms.svg

<svg width="40" height="40" viewBox="0 0 40 40" fill="none" xmlns="http://www.w3.org/2000/svg">
<path fill-rule="evenodd" clip-rule="evenodd" d="M36 27.6667C36 28.6792 35.1792 29.5 34.1667 29.5H20H5.83333C4.82081 29.5 4 28.6792 4 27.6667V7.83334C4 6.82082 4.82081 6.00001 5.83333 6.00001H34.1667C35.1792 6.00001 36 6.82082 36 7.83334V27.6667ZM34.1667 31.5H21V35.1668H25.6678C26.2201 35.1668 26.6678 35.6145 26.6678 36.1668C26.6678 36.7191 26.2201 37.1668 25.6678 37.1668H14.3345C13.7822 37.1668 13.3345 36.7191 13.3345 36.1668C13.3345 35.6145 13.7822 35.1668 14.3345 35.1668H19V31.5H5.83333C3.71624 31.5 2 29.7838 2 27.6667V7.83334C2 5.71625 3.71624 4.00001 5.83333 4.00001H34.1667C36.2838 4.00001 38 5.71625 38 7.83334V27.6667C38 29.7838 36.2838 31.5 34.1667 31.5ZM13.3057 22.1465C11.4404 22.1465 10.4102 21.0039 10.4102 19.002V18.2793C10.4102 16.3604 11.4697 15.2129 13.3057 15.2129C14.1748 15.2129 14.9463 15.4766 15.4248 15.9404C15.7471 16.2529 15.9424 16.6338 15.9424 16.9365C15.9424 17.3272 15.6738 17.5859 15.2832 17.5859C15.0244 17.5859 14.834 17.4883 14.5801 17.2295C14.2139 16.7803 13.8721 16.5752 13.4033 16.5752C12.5244 16.5752 12.0264 17.2246 12.0264 18.3525V18.9287C12.0264 20.1299 12.5146 20.7793 13.4033 20.7793C13.877 20.7793 14.2578 20.5742 14.6045 20.1348C14.8633 19.8662 15.0391 19.7734 15.2881 19.7734C15.6836 19.7734 15.9521 20.0371 15.9521 20.4229C15.9521 20.8086 15.6885 21.2383 15.2637 21.5557C14.7852 21.9268 14.1113 22.1465 13.3057 22.1465ZM18.4619 21.209C18.4619 21.7412 18.1934 22.0488 17.7246 22.0488C17.2607 22.0488 17.0166 21.7559 17.0166 21.209V16.3262C17.0166 15.6768 17.3877 15.2813 17.9834 15.2813C18.501 15.2813 18.8379 15.54 19.0967 16.2383L20.3906 19.5684H20.4443L21.7334 16.2334C21.9971 15.5254 22.3145 15.2813 22.8564 15.2813C23.4619 15.2813 23.8086 15.6621 23.8086 16.3262V21.209C23.8086 21.7412 23.54 22.0488 23.0713 22.0488C22.6123 22.0488 22.3682 21.7559 22.3682 21.209V17.8545H22.3242L21.1621 20.8232C20.9717 21.3213 20.7471 21.4775 20.4199 21.4775C20.0879 21.4775 19.8584 21.3115 19.668 20.8232L18.501 17.8545H18.4619V21.209ZM25.2539 21.4531C24.9707 21.1846 24.8145 20.9014 24.8145 20.6279C24.8145 20.2373 25.0977 19.9639 25.4443 19.9639C25.6787 19.9639 25.8789 20.0518 26.1475 20.291C26.5479 20.667 27.0312 20.8721 27.5244 20.8721C28.2227 20.8721 28.5986 20.6182 28.5986 20.1592C28.5986 19.7881 28.3057 19.5586 27.6025 19.4072L26.6846 19.1973C25.4834 18.9434 24.8926 18.3232 24.8926 17.3027C24.8926 16.0234 25.8887 15.2129 27.4512 15.2129C28.3057 15.2129 29.0771 15.4619 29.5264 15.8867C29.8145 16.1504 29.9658 16.4434 29.9658 16.7412C29.9658 17.0977 29.7119 17.3418 29.3359 17.3418C29.126 17.3418 28.916 17.249 28.7109 17.0537C28.3691 16.6777 27.9736 16.4824 27.4707 16.4824C26.8799 16.4824 26.5088 16.751 26.5088 17.1709C26.5088 17.5371 26.792 17.7959 27.4121 17.918L28.3398 18.1182C29.5801 18.3672 30.1807 18.9775 30.1807 19.9883C30.1807 21.3018 29.1113 22.1465 27.4414 22.1465C26.5234 22.1465 25.708 21.8828 25.2539 21.4531Z" fill="#161616"/>
</svg>

<svg width="40" height="40" viewBox="0 0 40 40" fill="none" xmlns="http://www.w3.org/2000/svg"><path fill-rule="evenodd" clip-rule="evenodd" d="M36 27.667c0 1.012-.82 1.833-1.833 1.833H5.833A1.833 1.833 0 0 1 4 27.667V7.833C4 6.821 4.82 6 5.833 6h28.334C35.179 6 36 6.82 36 7.833v19.834ZM34.167 31.5H21v3.667h4.668a1 1 0 1 1 0 2H14.335a1 1 0 1 1 0-2H19V31.5H5.833A3.833 3.833 0 0 1 2 27.667V7.833A3.833 3.833 0 0 1 5.833 4h28.334A3.833 3.833 0 0 1 38 7.833v19.834a3.833 3.833 0 0 1-3.833 3.833Zm-20.861-9.354c-1.866 0-2.896-1.142-2.896-3.144v-.723c0-1.919 1.06-3.066 2.896-3.066.869 0 1.64.264 2.119.727.322.313.517.694.517.996 0 .391-.268.65-.659.65-.259 0-.449-.098-.703-.356-.366-.45-.708-.655-1.177-.655-.879 0-1.377.65-1.377 1.777v.577c0 1.2.489 1.85 1.377 1.85.474 0 .855-.205 1.201-.644.26-.269.435-.362.684-.362.396 0 .664.264.664.65s-.264.815-.688 1.133c-.479.37-1.153.59-1.958.59Zm5.156-.937c0 .532-.269.84-.737.84-.464 0-.708-.293-.708-.84v-4.883c0-.65.37-1.045.966-1.045.518 0 .855.259 1.114.957l1.294 3.33h.053l1.29-3.335c.263-.708.58-.952 1.122-.952.606 0 .953.381.953 1.045v4.883c0 .532-.269.84-.738.84-.459 0-.703-.293-.703-.84v-3.354h-.044l-1.162 2.968c-.19.498-.415.654-.742.654-.332 0-.562-.166-.752-.654l-1.167-2.968h-.04v3.354Zm6.792.244c-.283-.268-.44-.552-.44-.825 0-.39.284-.664.63-.664.235 0 .435.088.704.327.4.376.883.581 1.376.581.699 0 1.075-.254 1.075-.713 0-.37-.293-.6-.997-.752l-.917-.21c-1.202-.254-1.792-.874-1.792-1.894 0-1.28.996-2.09 2.558-2.09.855 0 1.626.249 2.075.674.288.263.44.556.44.854 0 .357-.254.6-.63.6-.21 0-.42-.092-.625-.287-.342-.376-.737-.572-1.24-.572-.591 0-.962.269-.962.689 0 .366.283.625.903.747l.928.2c1.24.25 1.84.86 1.84 1.87 0 1.314-1.069 2.159-2.739 2.159-.918 0-1.733-.264-2.187-.694Z" fill="#161616"/></svg>
